X: 2
T: Tom Doherty's
R: reel
M: 4/4
L: 1/8
K: Bdor
|: b3 B2cdf | bB~B2 afga | b3 B2cdf | ecAc efga |
b3 B2cdf | bB~B2 a2ga | b3 B2cdf |1 ecAc efga :|2 ecAc eaga ||

